X: 2
T:Redowa
R:polka
C:Traditional
M:4/4
L:1/4
K:G
P:A
|: G/2B/2 d d d | d/2e/2d/2c/2 B B |G/2A/2 B G/2A/2 B |B A A2 |A/2B/2 c
c c | c/2d/2c/2B/2 A A |F/2G/2 A F/2G/2A/2B/2 | A G G2 :|
P:B
|: G/2B/2 d g d | d c/2B/2c/2B/2 c | F/2A/2 c f>e| e d/2^c/2d/2c/2 d | G
/2B/2 d g d | d c/2B/2c/2B/2 c | F/2A/2 c f>e | d/2d/2e/2f/2 g2 :|
K:C
P:C
|:"Key changes to C"G B/2c/2B/2c/2B/2c/2 | A ^c/2d/2c/2d/2c/2d/2 | B G A
 B | c/2B/2c/2e/2 a g | G B/2c/2B/2c/2B/2c/2 | A ^c/2d/2c/2d/2c/2d/2 | B
 G A B |1 c2 c B/2A/2 :|2 c2) c z ||
